assets/svg/categories_nft.svg

<svg width="48" height="48" viewBox="0 0 48 48" fill="none" xmlns="http://www.w3.org/2000/svg">
<path d="M38.0741 24.1105C37.9858 23.9646 37.9391 23.7973 37.9391 23.6267V6.83516C37.9391 6.50703 37.8116 6.1986 37.5791 5.96703L36.6088 4.99672C36.4951 4.88232 36.3598 4.79161 36.2108 4.72981C36.0618 4.66802 35.902 4.63638 35.7407 4.63672H10.6466C10.3185 4.63672 10.0101 4.76422 9.77852 4.99672L8.80727 5.96703C8.69287 6.08077 8.60215 6.21605 8.54036 6.36506C8.47857 6.51407 8.44693 6.67385 8.44727 6.83516V41.143C8.44727 41.4711 8.57477 41.7795 8.80727 42.0111L9.77852 42.9823C10.0101 43.2139 10.3185 43.3423 10.6466 43.3423H37.3551C37.6832 43.3423 37.9916 43.2148 38.2232 42.9823L39.1935 42.012C39.4251 41.7805 39.5535 41.472 39.5535 41.1439C39.5535 40.963 39.4063 40.8158 39.2254 40.8158C39.0445 40.8158 38.8973 40.963 38.8973 41.1439C38.8973 41.2967 38.8382 41.4402 38.7295 41.548L37.7591 42.5183C37.7062 42.5716 37.6433 42.6138 37.5739 42.6426C37.5046 42.6715 37.4302 42.6862 37.3551 42.6861H10.6466C10.4938 42.6861 10.3504 42.627 10.2426 42.5183L9.27133 41.547C9.21804 41.4941 9.17577 41.4312 9.14697 41.3618C9.11816 41.2924 9.1034 41.2181 9.10352 41.143V6.83516C9.10352 6.68235 9.16258 6.53891 9.27133 6.4311L10.2416 5.46078C10.2946 5.40749 10.3575 5.36523 10.4269 5.33642C10.4962 5.30762 10.5706 5.29285 10.6457 5.29297H35.7398C35.8926 5.29297 36.036 5.35203 36.1438 5.46078L37.1141 6.4311C37.1674 6.48401 37.2097 6.54697 37.2385 6.61633C37.2673 6.68568 37.2821 6.76006 37.282 6.83516V23.6267C37.282 23.9173 37.3616 24.2023 37.5126 24.4508L38.7604 26.5067C38.8486 26.6527 38.8953 26.8199 38.8954 26.9905V39.3711C38.8954 39.552 39.0426 39.6992 39.2235 39.6992C39.4045 39.6992 39.5516 39.552 39.5516 39.3711V26.9905C39.5516 26.6998 39.472 26.4148 39.321 26.1664L38.0741 24.1105Z" fill="#9A9A9A"/>
<path d="M38.2148 3.93657H9.78513C9.67667 3.93675 9.56983 3.91026 9.47402 3.85941C9.37822 3.80857 9.29639 3.73493 9.23576 3.64501C9.11201 3.46313 9.08669 3.23157 9.16826 3.02719L9.67732 1.74844C9.81607 1.39876 10.1508 1.17188 10.5276 1.17188H37.4723C37.6556 1.17122 37.8348 1.22591 37.9866 1.32878C38.1383 1.43165 38.2554 1.57792 38.3226 1.74844L38.8317 3.02719C38.8719 3.12783 38.8867 3.23679 38.8749 3.34451C38.8632 3.45223 38.8251 3.55541 38.7642 3.64501C38.6404 3.82782 38.4351 3.93657 38.2148 3.93657Z" fill="#E1EAF8"/>
<path d="M10.3817 1.87239C10.3387 1.9015 10.3055 1.94294 10.2865 1.99125L9.7793 3.27L9.78586 3.28032H11.1396C11.1349 3.22782 11.1415 3.17344 11.163 3.12C11.3862 2.55938 11.7921 2.11032 12.2965 1.82813H10.5274C10.4755 1.82785 10.4247 1.84328 10.3817 1.87239Z" fill="white"/>
<path d="M9.78513 44.0625H38.2139C38.3223 44.0623 38.4292 44.0888 38.525 44.1397C38.6208 44.1905 38.7026 44.2641 38.7633 44.3541C38.887 44.5359 38.9123 44.7675 38.8308 44.9719L38.3217 46.2506C38.1829 46.6003 37.8483 46.8272 37.4714 46.8272H10.5276C10.3443 46.8278 10.1651 46.7732 10.0134 46.6703C9.86168 46.5674 9.74455 46.4212 9.67732 46.2506L9.16826 44.9719C9.12809 44.8712 9.11324 44.7623 9.12501 44.6546C9.13678 44.5468 9.17481 44.4437 9.23576 44.3541C9.35951 44.1712 9.56482 44.0625 9.78513 44.0625Z" fill="#E1EAF8"/>
<path d="M9.77734 44.7291L10.2864 46.0078C10.3258 46.1072 10.4205 46.1709 10.5273 46.1709H12.2945C11.7795 45.8834 11.3792 45.4272 11.1611 44.8791C11.1405 44.8256 11.1339 44.7713 11.1377 44.7188H9.78391L9.77734 44.7291Z" fill="white"/>
<path d="M39.2246 7.64258C39.0437 7.64258 38.8965 7.78977 38.8965 7.9707V21.9132C38.8965 22.0941 39.0437 22.2413 39.2246 22.2413C39.4055 22.2413 39.5527 22.0941 39.5527 21.9132V7.9707C39.5527 7.78977 39.4055 7.64258 39.2246 7.64258Z" fill="#9A9A9A"/>
<path d="M36.8433 27.6264C37.1761 28.0183 37.3589 28.5152 37.3589 29.0289V37.4252C37.3589 39.1558 35.9555 40.5592 34.2248 40.5592H29.5823C28.9261 40.5592 28.3945 40.0277 28.3945 39.3714C28.3945 38.7836 28.7161 38.2436 29.2317 37.9633C30.7225 37.1531 32.0283 36.0413 33.0658 34.6987C34.1034 33.3561 34.8499 31.8122 35.258 30.1652L35.8289 27.8636C35.9442 27.4014 36.5348 27.2636 36.8433 27.6264Z" fill="#E1EAF8"/>
<path fill-rule="evenodd" clip-rule="evenodd" d="M23.9915 12.4303C23.4009 12.0857 22.6706 12.0857 22.08 12.4303L15.4411 16.3029C14.8583 16.6429 14.5 17.2667 14.5 17.9414V25.7208C14.5 26.3954 14.8583 27.0193 15.4411 27.3592L15.776 27.5546C15.834 27.473 15.909 27.4015 15.9998 27.346L23.543 22.7363C24.3965 22.2147 25.4705 22.2164 26.3224 22.7406L31.4964 25.9246C31.517 25.9373 31.5368 25.9508 31.5557 25.965C31.5661 25.8846 31.5714 25.8031 31.5714 25.7208V17.9414C31.5714 17.2667 31.2131 16.6429 30.6304 16.3029L23.9915 12.4303ZM30.7772 27.2642C30.7504 27.2518 30.724 27.2376 30.6982 27.2217L25.5242 24.0377C25.1604 23.8138 24.7017 23.8131 24.3372 24.0359L17.2103 28.3912L22.08 31.2319C22.6706 31.5764 23.4009 31.5764 23.9915 31.2319L30.6304 27.3592C30.681 27.3296 30.73 27.2979 30.7772 27.2642ZM19.0554 19.4604C19.0554 18.8334 19.5637 18.3251 20.1907 18.3251C20.8177 18.3251 21.326 18.8334 21.326 19.4604C21.326 20.0874 20.8177 20.5957 20.1907 20.5957C19.5637 20.5957 19.0554 20.0874 19.0554 19.4604ZM20.1907 16.802C18.7225 16.802 17.5323 17.9922 17.5323 19.4604C17.5323 20.9285 18.7225 22.1187 20.1907 22.1187C21.6589 22.1187 22.849 20.9285 22.849 19.4604C22.849 17.9922 21.6589 16.802 20.1907 16.802Z" fill="#0166FF"/>
</svg>

<svg xmlns="http://www.w3.org/2000/svg" width="48" height="48" fill="none"><path fill="#9A9A9A" d="M38.074 24.11a.93.93 0 0 1-.135-.483V6.835c0-.328-.127-.636-.36-.868l-.97-.97a1.22 1.22 0 0 0-.868-.36H10.647c-.328 0-.637.127-.868.36l-.972.97a1.22 1.22 0 0 0-.36.868v34.308c0 .328.128.636.36.868l.972.971c.231.232.54.36.868.36h26.708c.328 0 .637-.127.868-.36l.97-.97c.232-.231.36-.54.36-.868a.328.328 0 0 0-.656 0c0 .153-.059.296-.167.404l-.97.97a.57.57 0 0 1-.405.168H10.647a.56.56 0 0 1-.404-.168l-.972-.971a.57.57 0 0 1-.167-.404V6.835c0-.153.059-.296.167-.404l.97-.97a.57.57 0 0 1 .405-.168H35.74c.153 0 .296.059.404.168l.97.97a.57.57 0 0 1 .168.404v16.792c0 .29.08.575.23.824l1.248 2.056a.94.94 0 0 1 .135.483v12.381a.328.328 0 0 0 .657 0v-12.38c0-.291-.08-.576-.231-.825z"/><path fill="#E1EAF8" d="M38.215 3.937H9.785a.66.66 0 0 1-.55-.292.66.66 0 0 1-.067-.618l.51-1.279a.91.91 0 0 1 .85-.576h26.944a.91.91 0 0 1 .85.576l.51 1.28a.66.66 0 0 1-.068.617.66.66 0 0 1-.55.292"/><path fill="#fff" d="M10.382 1.872a.26.26 0 0 0-.095.12L9.779 3.27l.007.01h1.354a.34.34 0 0 1 .023-.16c.223-.56.63-1.01 1.133-1.292h-1.769a.26.26 0 0 0-.145.044"/><path fill="#E1EAF8" d="M9.785 44.063h28.429a.66.66 0 0 1 .55.291.66.66 0 0 1 .067.618l-.51 1.279a.91.91 0 0 1-.85.576H10.528a.91.91 0 0 1-.85-.576l-.51-1.28a.662.662 0 0 1 .617-.908"/><path fill="#fff" d="m9.777 44.73.51 1.278c.039.1.133.163.24.163h1.768a2.57 2.57 0 0 1-1.134-1.292.4.4 0 0 1-.023-.16H9.784z"/><path fill="#9A9A9A" d="M39.225 7.643a.33.33 0 0 0-.328.328v13.942a.328.328 0 0 0 .656 0V7.971a.33.33 0 0 0-.328-.328"/><path fill="#E1EAF8" d="M36.843 27.626c.333.392.516.89.516 1.403v8.396a3.134 3.134 0 0 1-3.134 3.134h-4.643a1.187 1.187 0 0 1-1.187-1.188c0-.587.321-1.127.837-1.408a12.22 12.22 0 0 0 6.026-7.798l.57-2.301a.586.586 0 0 1 1.015-.238"/><path fill="#0166FF" fill-rule="evenodd" d="M23.992 12.43a1.9 1.9 0 0 0-1.912 0l-6.639 3.873c-.583.34-.941.964-.941 1.638v7.78c0 .674.358 1.298.941 1.638l.335.196a.8.8 0 0 1 .224-.209l7.543-4.61a2.66 2.66 0 0 1 2.78.005l5.173 3.184q.03.018.06.04.015-.12.015-.244v-7.78c0-.674-.358-1.298-.94-1.638zm6.785 14.834a1 1 0 0 1-.079-.042l-5.174-3.184a1.14 1.14 0 0 0-1.187-.002L17.21 28.39l4.87 2.84c.59.345 1.32.345 1.912 0l6.638-3.872q.077-.045.147-.095M19.055 19.46a1.135 1.135 0 1 1 2.271 0 1.135 1.135 0 0 1-2.27 0m1.136-2.658a2.658 2.658 0 1 0 0 5.317 2.658 2.658 0 0 0 0-5.317" clip-rule="evenodd"/></svg>
